src/flags/country-flag/1F1FF-1F1FC.svg

<svg id="emoji" viewBox="0 0 72 72" xmlns="http://www.w3.org/2000/svg">
  <g id="grid">
    <path fill="#b3b3b3" d="M68,4V68H4V4H68m4-4H0V72H72V0Z"/>
    <path fill="none" stroke="#00a5ff" stroke-miterlimit="10" stroke-width="0.1" d="M12.923,10.9583H59.0769A1.9231,1.9231,0,0,1,61,12.8814V59.0352a1.9231,1.9231,0,0,1-1.9231,1.9231H12.9231A1.9231,1.9231,0,0,1,11,59.0352V12.8813A1.923,1.923,0,0,1,12.923,10.9583Z"/>
    <rect x="16" y="4" rx="2.2537" ry="2.2537" width="40" height="64" fill="none" stroke="#00a5ff" stroke-miterlimit="10" stroke-width="0.1"/>
    <rect x="16" y="4" rx="2.2537" ry="2.2537" width="40" height="64" transform="translate(72) rotate(90)" fill="none" stroke="#00a5ff" stroke-miterlimit="10" stroke-width="0.1"/>
    <circle cx="36" cy="36" r="29" fill="none" stroke="#00a5ff" stroke-miterlimit="10" stroke-width="0.1"/>
  </g>
  <g id="color">
    <rect x="5" y="17" width="62" height="38"/>
    <rect x="5" y="49" width="62" height="6" fill="#5c9e31"/>
    <rect x="5" y="44" width="62" height="5" fill="#f1b31c"/>
    <rect x="5" y="39" width="62" height="5" fill="#d22f27"/>
    <rect x="5" y="17" width="62" height="6" fill="#5c9e31"/>
    <rect x="5" y="23" width="62" height="5" fill="#f1b31c"/>
    <rect x="5" y="28" width="62" height="5" fill="#d22f27"/>
    <polygon fill="#fff" stroke="#000" stroke-linecap="round" stroke-linejoin="round" points="26 36 5 55 5 17 26 36"/>
    <g>
      <path fill="#d22f27" stroke="#d22f27" stroke-linecap="round" stroke-linejoin="round" stroke-width="0.5399" d="M15.2661,35.6693,19,32.7964l-4.5363.1121-1.2981-4.4669L11.66,32.9777l-4.5369.112,3.6062,2.6918-.974,2.9344a2.2833,2.2833,0,0,1,1.0806.362l2.1222-1.6328,3.6063,2.6918Z"/>
      <path fill="#fcea2b" d="M10.7012,30.9391A.8847.8847,0,0,0,9.277,31.64v8.7433a.8848.8848,0,0,0,.8848.8848h6.0475a.8847.8847,0,0,0,.8847-.8848V36.2923a.8847.8847,0,0,0-.3453-.7013Z"/>
    </g>
  </g>
  <g id="line">
    <rect x="5" y="17" width="62" height="38" fill="none" stroke="#000" stroke-linecap="round" stroke-linejoin="round" stroke-width="2"/>
  </g>
</svg>

<svg viewBox="0 0 72 72" xmlns="http://www.w3.org/2000/svg"><path fill="#b3b3b3" d="M68 4v64H4V4h64m4-4H0v72h72V0z"/><path fill="none" stroke="#00a5ff" stroke-miterlimit="10" stroke-width=".1" d="M12.923 10.958h46.154A1.923 1.923 0 0161 12.881v46.154a1.923 1.923 0 01-1.923 1.923H12.923A1.923 1.923 0 0111 59.035V12.881a1.923 1.923 0 011.923-1.923z"/><rect x="16" y="4" rx="2.254" ry="2.254" width="40" height="64" fill="none" stroke="#00a5ff" stroke-miterlimit="10" stroke-width=".1"/><rect x="16" y="4" rx="2.254" ry="2.254" width="40" height="64" transform="rotate(90 36 36)" fill="none" stroke="#00a5ff" stroke-miterlimit="10" stroke-width=".1"/><circle cx="36" cy="36" r="29" fill="none" stroke="#00a5ff" stroke-miterlimit="10" stroke-width=".1"/><path d="M5 17h62v38H5z" stroke-linecap="round" stroke-miterlimit="10" stroke-width="6" stroke="#fff" fill="none" stroke-linejoin="round"/><path d="M5 17h62v38H5z"/><path fill="#5c9e31" d="M5 49h62v6H5z"/><path fill="#f1b31c" d="M5 44h62v5H5z"/><path fill="#d22f27" d="M5 39h62v5H5z"/><path fill="#5c9e31" d="M5 17h62v6H5z"/><path fill="#f1b31c" d="M5 23h62v5H5z"/><path fill="#d22f27" d="M5 28h62v5H5z"/><path fill="#fff" stroke="#000" stroke-linecap="round" stroke-linejoin="round" d="M26 36L5 55V17l21 19z"/><path fill="#d22f27" stroke="#d22f27" stroke-linecap="round" stroke-linejoin="round" stroke-width=".54" d="M15.266 35.67L19 32.795l-4.536.112-1.298-4.466-1.506 4.536-4.537.112 3.606 2.691-.974 2.935a2.283 2.283 0 011.08.362l2.123-1.633 3.606 2.692z"/><path fill="#fcea2b" d="M10.701 30.94a.885.885 0 00-1.424.7v8.743a.885.885 0 00.885.885h6.047a.885.885 0 00.885-.885v-4.09a.885.885 0 00-.345-.702z"/><g><path fill="none" stroke="#000" stroke-linecap="round" stroke-linejoin="round" stroke-width="2" d="M5 17h62v38H5z"/></g></svg>
